X:1
T: Lawer's House
C:Niel Gow
R:Reel
Q: 232
K:Am
M:4/4
L:1/8
|:e|dc BA A2 ed|dc BA g3e|de ga eg dg|B2 G2 G3e|
dc BA A2 ed|dc BA a3g|eg dg ca Bg|c2 A2 A3:|
^g|a^g ab ab a=g|de ga b2 ag|de gb eg dg|B2 G2 G2 e^g|
a^g ab ab a=g|de ga b2 ag|de ga eg dg|B2 A2 A2 e^g|
a^g ab ab a=g|de ga b2 ag|de gb eg dg|B2 G2 G2 ed|
dc BA A2 ed|dc BA a3g|eg dg ca Bg|c2 A2 A3||
